X:213
T:Hornpipe TS.213
M:C|
L:1/8
Q:1/2=80
S:Thomas Sands’ MS,1810,Lincolnshire
R:.hornpipe
N:As written with only 7 bars in B part
N:”Bis” used to repeat bar 6 in A part
O:England;Lincolnshire
Z:vmp.Ruairidh Greig, 2011
K:C
c>Bc>d e>fg>e|c>Bc>d e>fg>e|dcde fedc|B2G2G2AB|
c>Bc>d e>fg>e|c>Bc>d e>fg>e|eagf edcB|c2c2c2:|
|:z2|g^fgf fdBG|fgag fde”bar missing”f|g2b2g3e|fefe fagf|
eded egfe|eagf edcB|c2c2c2:|]

